dist/icons/svgs/circle-dot-outline.svg

<svg xmlns="http://www.w3.org/2000/svg" width="24" height="24" fill="currentcolor" class="icon-circle-dot-outline" viewBox="0 0 24 24">
  <path d="M20.125 11.9805C20.125 9.08984 18.5625 6.43359 16.0625 4.94922C13.5234 3.50391 10.4375 3.50391 7.9375 4.94922C5.39844 6.43359 3.875 9.08984 3.875 11.9805C3.875 14.9102 5.39844 17.5664 7.9375 19.0508C10.4375 20.4961 13.5234 20.4961 16.0625 19.0508C18.5625 17.5664 20.125 14.9102 20.125 11.9805ZM2 11.9805C2 8.42578 3.875 5.14453 7 3.34766C10.0859 1.55078 13.875 1.55078 17 3.34766C20.0859 5.14453 22 8.42578 22 11.9805C22 15.5742 20.0859 18.8555 17 20.6523C13.875 22.4492 10.0859 22.4492 7 20.6523C3.875 18.8555 2 15.5742 2 11.9805ZM12 8.23047C13.3281 8.23047 14.5391 8.97266 15.2422 10.1055C15.9062 11.2773 15.9062 12.7227 15.2422 13.8555C14.5391 15.0273 13.3281 15.7305 12 15.7305C10.6328 15.7305 9.42188 15.0273 8.71875 13.8555C8.05469 12.7227 8.05469 11.2773 8.71875 10.1055C9.42188 8.97266 10.6328 8.23047 12 8.23047Z"/>
</svg>

<svg xmlns="http://www.w3.org/2000/svg" width="24" height="24" fill="currentColor" class="icon-circle-dot-outline" viewBox="0 0 24 24">
  <path d="M20.125 12c0-2.89-1.562-5.547-4.062-7.031-2.54-1.446-5.625-1.446-8.125 0C5.398 6.453 3.875 9.109 3.875 12a8.13 8.13 0 0 0 4.063 7.07c2.5 1.446 5.585 1.446 8.125 0 2.5-1.484 4.062-4.14 4.062-7.07M2 12a9.93 9.93 0 0 1 5-8.633c3.086-1.797 6.875-1.797 10 0 3.086 1.797 5 5.078 5 8.633 0 3.594-1.914 6.875-5 8.672-3.125 1.797-6.914 1.797-10 0C3.875 18.875 2 15.594 2 12m10-3.75c1.328 0 2.54.742 3.242 1.875.664 1.172.664 2.617 0 3.75-.703 1.172-1.914 1.875-3.242 1.875-1.367 0-2.578-.703-3.281-1.875-.664-1.133-.664-2.578 0-3.75C9.422 8.992 10.633 8.25 12 8.25"/>
</svg>
